X:1
T:Fuggi, fuggi o mio core
T:Piero Benedetti
T:Source : Musische di P.Benedetti---Libro secondo---Venetia---R.Amadino---1613. Editor : André Vierendeels (31/05/15).
T:Notes : Original clefs : C1, F4 Editorial accidentals above the staff Figures in BC are notated in original print
T:Fuggi, fuggi o mio core
C:Piero Benedetti
%%score 1 { 2 | 3 }
L:1/8
Q:1/4=76
M:4/4
K:C
V:1 treble nm="Soprano" snm="S"
V:2 treble nm="BC" snm="BC"
V:3 bass 
V:1
 d3 B d4- | d2 cB A4 | A4 z2 A2 | c4 c2 cA | B4 B4 | ^G2 GG AEEE | A2 G2 ^F4 | ^F3 F G3 G | %8
w: Fug- gi, fug-|* gi'O mio- co-|re, non|ve- di la man|bel- la,|che con- giu- ra- ta co'i be-|glioc- chi'an- chel-|la, per far- ti|
 A3 A B4 | z2 B2 c3 c | d3 d e4 | d4 ^G3 A | A3 ^G- A4 | z A ^F4 F2 | z d B4 B2 | B2 ce G4 | %16
w: pri- gio- nier-|per far- ti|pri- gio- nier|vien- ti'a fe-|ri- te, _|ma las- so,|ma las- so,|ec- co'un so- spir|
 B2 AG G4 | G4 z ccB | A4 A4 | z ddc B4 | B2 B2 c/d/c/B/ A/G/F | G4 A4 | A2 B2 c4- | c2 dG A4 | %24
w: nun- zio'in- fe- li-|ce, ch'es- ce del|pet- to,|ch'es- ce dal pet-|to, e di- * * * * * *|* ce:|Che piu gio-|* v'il fug- gi-|
 A4 z ecB | B4 B4 | z BBB d4- | d2 _B2 A4 | G8 |] %29
w: re? E- gli'e gia|pre- so,|e gli con- vien|_ mo- ri-|re.|
V:2
 z8 | z8 | z8 | z8 | z8 | z8 | z8 | z8 | z8 | z8 | z8 | z8 | z8 | z8 | z8 | z8 | z8 | z8 | z8 | %19
 z8 | z8 |"^#" z8 | z8 | z8 | z8 | z8 | z8 | z8 | z8 |] %29
V:3
 G,6 B,,G,, |"^#" B,,2 C,2 D,4 |"^#" D,8 | A,,8 |"^#" E,8 | E,2 D,2 ^C,4 | ^C,4 D,4 | %7
 D,4 G,,2 B,,2 |"^#" C,2 D,2 G,,4 | G,4 C,2 E,2 | F,2 G,2 C,4 | B,,4 E,4 | %12
"^4""^#""^#" E,2 E,2 A,,4 |"^#" A,,2 D,4 D,2 |"^#" D,2 G,4 G,2 | G,4 E,4 | B,,4 C,4 | C,4 A,,4 | %18
"^#" z A,,B,,^C, D,4 | B,,4 z B,,C,D, | E,4 G,4 |"^#""^6""^#" E,2 E,2 D,4 |"^#" D,2 G,2 C,4 | %23
"^#" B,,4 D,4 |"^#" D,4 A,,4 |"^#" E,8 | G,,4 B,,2 C,2 |"^#""^4""^#" D,2 D,4 D,2 | G,,8 |] %29

